X:1
T:Bright Was The Night
T:Bright Was The Night
%%score [ 1 2 3 4 ]
L:1/8
Q:1/4=80
M:4/4
K:C
V:1 treble-8 nm="Tenor"
V:2 treble-8 nm="Lead"
V:3 bass nm="Baritone"
V:4 bass nm="Bass"
V:1
 z8 | e2 e e f4 | z8 | e2 e e f3 e | f2 ^d2 e2 g2 | ^f4 f4 | =f4 e4 | f6 z2 | z8 | e2 e e f4 | z8 | %11
w: |Bright was the night,||Moon shin- ing bright, 'T~was|there I met my|sweet- heart|Sue, my|Sue.||She prom- ised me||
 e2 e e !fermata!f3 e | f2 ^d2 e2 g2 | ^f4 =f4 | e8- | e6 z2 |] %16
w: that she would be, That|she would be my|bride some|day.|_|
V:2
 E2 ^D E G4- | G8 | E2 ^D E G4- | G4- G3 G | c2 A2 G2 E2 | D4 A4 | G8- | G6 z2 | E2 ^D E G4- | G8 | %10
w: Bright was the night,|_|Moon shin- ing bright|_ _ 'T~was|there I met my|sweet- heart|Sue.|_|She prom- ised me|_|
 E2 ^D E G4 | G2 G G (G !fermata!d2) G | c2 A2 G2 E2 | c4 d4 | c8- | c6 z2 |] %16
w: That she would be,|that she would be, _ That|she would be my|bride some|day.|_|
V:3
 z8 | C2 ^A, A, B,4 | z8 | C2 ^A, A, B,3 _B, | A,2 C2 C2 ^C2 | =C4 C4 | B,4 ^A,4 | B,6 z2 | z8 | %9
w: |Bright was the night,||Moon shin- ing bright, 'T~was|there I met my|sweet- heart|Sue, my|Sue.||
 C2 ^A, A, B,4 | z8 | C2 ^A, A, (!fermata!B,!fermata!C!fermata!B,) _B, | A,2 C2 C2 ^C2 | %13
w: She prom- ised me||that she would be, _ _ That|she would be my|
 (D2 _E2) B,4 | G,8- | G,6 z2 |] %16
w: bride _ some|day.|_|
V:4
 z8 | C,2 ^C, C, D,4 | z8 | C,2 ^C, C, D,3 =C, | F,2 ^F,2 G,2 A,2 | A,4 D,4 | D,4 ^C,4 | D,6 z2 | %8
w: |Bright was the night,||Moon shin- ing bright, 'T~was|there I met my|sweet- heart|Sue, my|Sue.|
 z8 | C,2 ^C, C, D,4 | z8 | C,2 ^C, C, (!fermata!D,!fermata!A,!fermata!G,) =C, | F,2 ^F,2 G,2 A,2 | %13
w: |She prom- ised me||that she would be, _ _ That|she would be my|
 (A,2 _A,2) G,4 | C,8- | C,6 z2 |] %16
w: bride _ some|day.|_|

